X:12
T:Give Us a Drink of Water
Z: id:dc-slipjig-12
M:9/8
L:1/8
K:G Major
D|GBd gdc BAG|BdB cAA A2D|GBd gdc BAG|BcA AGF G2:|!
d|g3 efg fed|g3 efg afd|g3 bag fed|efg afd g2d|!
g3 efg fed|g3 efg a2g|bag agf ged|efg afd g2|]!

